X:1
T:Van Dieman's Land
M:4/4
L:1/4
K:G
 z2 z G| G D GA/2-B/2| c B A G| F- DE/2-F/2 G| A2 B3/2- A/2| G D GA/2-B/2|\
 c B A G3/4 G/4| F DE/2-F/2 G| A2 A3/2- B/2| c/2 c3/2 cA/2-B/2| c2 B A|\
 A d d A| B3 G| A d d3/2 B/2| c B AG/2-F/2| GA/2-B/2 c A| G- F D/2 D3/2|\
 B2 c3/2 d/2| d2 A A/2G/2| F D B A| G- F D/2 D3/2| B2 c3/2 d/2| d2 A A/2G/2|\
 F D G F| G3 z|
